app/assets/images/heroicons/mini/ticket.svg

<svg width="20" height="20" viewBox="0 0 20 20" fill="none" xmlns="http://www.w3.org/2000/svg">
<path fill-rule="evenodd" clip-rule="evenodd" d="M15.75 3C16.9926 3 18 4.00736 18 5.25V6.46353C18 6.88735 17.7226 7.25186 17.3672 7.48284C16.5442 8.01776 16 8.94532 16 10C16 11.0547 16.5442 11.9822 17.3672 12.5172C17.7226 12.7481 18 13.1127 18 13.5365V14.75C18 15.9926 16.9926 17 15.75 17H4.25C3.00736 17 2 15.9926 2 14.75V13.5365C2 13.1127 2.27744 12.7481 2.63279 12.5172C3.45575 11.9822 4 11.0547 4 10C4 8.94532 3.45575 8.01776 2.63279 7.48284C2.27744 7.25186 2 6.88735 2 6.46353V5.25C2 4.00736 3.00736 3 4.25 3H15.75ZM13.5 7.39583C13.5 6.98162 13.1642 6.64583 12.75 6.64583C12.3358 6.64583 12 6.98162 12 7.39583V8.4375C12 8.85171 12.3358 9.1875 12.75 9.1875C13.1642 9.1875 13.5 8.85171 13.5 8.4375V7.39583ZM13.5 11.5625C13.5 11.1483 13.1642 10.8125 12.75 10.8125C12.3358 10.8125 12 11.1483 12 11.5625V12.6042C12 13.0184 12.3358 13.3542 12.75 13.3542C13.1642 13.3542 13.5 13.0184 13.5 12.6042V11.5625Z" fill="#0F172A"/>
</svg>

<svg xmlns="http://www.w3.org/2000/svg" viewBox="0 0 20 20" fill="currentColor" aria-hidden="true" data-slot="icon">
  <path fill-rule="evenodd" d="M15.75 3A2.25 2.25 0 0 1 18 5.25v1.214c0 .423-.277.788-.633 1.019A2.997 2.997 0 0 0 16 10c0 1.055.544 1.982 1.367 2.517.356.231.633.596.633 1.02v1.213A2.25 2.25 0 0 1 15.75 17H4.25A2.25 2.25 0 0 1 2 14.75v-1.213c0-.424.277-.789.633-1.02A2.998 2.998 0 0 0 4 10a2.997 2.997 0 0 0-1.367-2.517C2.277 7.252 2 6.887 2 6.463V5.25A2.25 2.25 0 0 1 4.25 3h11.5ZM13.5 7.396a.75.75 0 0 0-1.5 0v1.042a.75.75 0 0 0 1.5 0V7.396Zm0 4.167a.75.75 0 0 0-1.5 0v1.041a.75.75 0 0 0 1.5 0v-1.041Z" clip-rule="evenodd"/>
</svg>
